; generated by PrusaSlicer 2.7.1+linux-x64-GTK2 on 2024-04-10 at 08:16:48 UTC

; 

; external perimeters extrusion width = 0.45mm
; perimeters extrusion width = 0.45mm
; infill extrusion width = 0.45mm
; solid infill extrusion width = 0.45mm
; top infill extrusion width = 0.40mm
; first layer extrusion width = 0.42mm

M190 S60 ; set bed temperature and wait for it to be reached
M104 S200 ; set temperature
;TYPE:Custom
G28 ; home all axes
G1 Z5 F5000 ; lift nozzle
M109 S200 ; set temperature and wait for it to be reached
G21 ; set units to millimeters
G90 ; use absolute coordinates
M82 ; use absolute distances for extrusion
G92 E0
; Filament gcode
M107
;LAYER_CHANGE
;Z:0.35
;HEIGHT:0.35
G1 Z.35 F7800
G1 E-2 F2400
G92 E0
G1 X56.608 Y55.442 F7800
G1 E2 F2400
;TYPE:Skirt/Brim
;WIDTH:0.42
G1 F1800
G1 X56.808 Y55.238 E2.01434
G1 X59.604 Y52.655 E2.20537
G1 X62.525 Y50.214 E2.39641
G1 X65.564 Y47.922 E2.58744
G1 X68.713 Y45.784 E2.77846
G1 X71.966 Y43.806 E2.96953
G1 X75.312 Y41.992 E3.16054
G1 X78.745 Y40.348 E3.35156
G1 X82.256 Y38.877 E3.5426
G1 X85.836 Y37.582 E3.73366
G1 X89.475 Y36.468 E3.92465
G1 X93.166 Y35.536 E4.1157
G1 X96.899 Y34.789 E4.30676
G1 X100.664 Y34.23 E4.49778
G1 X104.453 Y33.859 E4.68884
G1 X108.255 Y33.677 E4.87987
G1 X112.061 Y33.685 E5.07088
G1 X115.547 Y33.859 E5.24605
G1 X119.336 Y34.23 E5.43711
G1 X123.101 Y34.789 E5.62813
G1 X126.834 Y35.536 E5.81919
G1 X130.525 Y36.468 E6.01024
G1 X134.164 Y37.582 E6.20123
G1 X137.744 Y38.877 E6.39229
G1 X141.255 Y40.348 E6.58333
G1 X144.688 Y41.993 E6.77438
G1 X148.034 Y43.806 E6.96537
G1 X151.287 Y45.784 E7.15644
G1 X154.436 Y47.922 E7.34746
G1 X157.475 Y50.214 E7.53849
G1 X160.396 Y52.655 E7.72953
G1 X163.192 Y55.238 E7.92056
G1 X165.856 Y57.958 E8.11163
G1 X168.38 Y60.807 E8.30265
G1 X170.76 Y63.778 E8.49369
G1 X172.988 Y66.864 E8.68471
G1 X175.06 Y70.057 E8.87574
G1 X176.97 Y73.35 E9.06679
G1 X178.714 Y76.734 E9.25785
G1 X180.287 Y80.2 E9.44887
G1 X181.685 Y83.741 E9.63993
G1 X182.905 Y87.346 E9.83093
G1 X183.943 Y91.009 E10.022
G1 X184.798 Y94.718 E10.21302
G1 X185.467 Y98.465 E10.40404
G1 X185.948 Y102.241 E10.59507
G1 X186.24 Y106.037 E10.78614
G1 X186.343 Y109.842 E10.97717
G1 X186.256 Y113.647 E11.16818
G1 X185.979 Y117.444 E11.35924
G1 X185.514 Y121.222 E11.55027
G1 X184.861 Y124.972 E11.7413
G1 X184.021 Y128.685 E11.93235
G1 X182.998 Y132.351 E12.12336
G1 X181.793 Y135.962 E12.31441
G1 X180.41 Y139.509 E12.50547
G1 X178.851 Y142.981 E12.69648
G1 X177.122 Y146.372 E12.88751
G1 X175.225 Y149.673 E13.07858
G1 X173.166 Y152.875 E13.26963
G1 X170.951 Y155.97 E13.46064
G1 X168.584 Y158.951 E13.65167
G1 X166.071 Y161.81 E13.8427
G1 X163.192 Y164.762 E14.04964
G1 X160.396 Y167.345 E14.24067
G1 X157.475 Y169.786 E14.43171
G1 X154.436 Y172.078 E14.62274
G1 X151.287 Y174.216 E14.81376
G1 X148.034 Y176.194 E15.00483
G1 X144.688 Y178.008 E15.19584
G1 X141.255 Y179.652 E15.38686
G1 X137.744 Y181.123 E15.5779
G1 X134.164 Y182.418 E15.76896
G1 X130.525 Y183.532 E15.95995
G1 X126.834 Y184.464 E16.151
G1 X123.101 Y185.211 E16.34206
G1 X119.336 Y185.77 E16.53308
G1 X115.547 Y186.141 E16.72414
G1 X111.745 Y186.323 E16.91517
G1 X107.939 Y186.315 E17.10618
G1 X104.137 Y186.118 E17.29724
G1 X100.35 Y185.731 E17.48828
G1 X96.588 Y185.156 E17.67927
G1 X92.858 Y184.394 E17.87033
G1 X89.171 Y183.447 E18.06137
G1 X85.536 Y182.317 E18.25241
G1 X82.256 Y181.123 E18.42759
G1 X78.745 Y179.652 E18.61863
G1 X75.312 Y178.008 E18.80965
G1 X71.966 Y176.194 E19.00066
G1 X68.713 Y174.216 E19.19173
G1 X65.564 Y172.078 E19.38275
G1 X62.525 Y169.786 E19.57378
G1 X59.604 Y167.345 E19.76482
G1 X56.808 Y164.762 E19.95585
G1 X54.144 Y162.042 E20.14692
G1 X51.62 Y159.193 E20.33794
G1 X49.24 Y156.222 E20.52898
G1 X47.012 Y153.136 E20.72
G1 X44.94 Y149.943 E20.91103
G1 X43.03 Y146.65 E21.10208
G1 X41.286 Y143.266 E21.29314
G1 X39.713 Y139.8 E21.48416
G1 X38.315 Y136.259 E21.67522
G1 X37.095 Y132.654 E21.86622
G1 X36.057 Y128.991 E22.05729
G1 X35.202 Y125.282 E22.24831
G1 X34.533 Y121.535 E22.43933
G1 X34.052 Y117.759 E22.63036
G1 X33.76 Y113.963 E22.82143
G1 X33.657 Y110.158 E23.01246
G1 X33.744 Y106.352 E23.20352
G1 X34.021 Y102.556 E23.39453
G1 X34.486 Y98.778 E23.58556
G1 X35.139 Y95.028 E23.77659
G1 X35.979 Y91.315 E23.96764
G1 X37.002 Y87.649 E24.15865
G1 X38.207 Y84.038 E24.3497
G1 X39.59 Y80.491 E24.54076
G1 X41.117 Y77.088 E24.72795
G1 X43.03 Y73.35 E24.93868
G1 X44.94 Y70.057 E25.12973
G1 X47.012 Y66.864 E25.32076
G1 X49.24 Y63.778 E25.51178
G1 X51.62 Y60.807 E25.70282
G1 X54.144 Y57.958 E25.89384
G1 X56.566 Y55.485 E26.06756
G1 E24.06756 F2400
G92 E0
G1 X56.566 Y55.485 F7800
G1 X160.654 Y157
G1 E2 F2400
;TYPE:Perimeter
;WIDTH:0.42
G1 F1800
G1 X158.248 Y159.466 E2.1729
G1 X155.722 Y161.81 E2.34584
G1 X153.083 Y164.025 E2.51875
G1 X150.337 Y166.105 E2.69163
G1 X147.49 Y168.046 E2.86456
G1 X144.55 Y169.842 E3.03746
G1 X141.524 Y171.49 E3.21038
G1 X138.42 Y172.985 E3.38328
G1 X135.245 Y174.323 E3.55619
G1 X132.007 Y175.502 E3.72913
G1 X128.715 Y176.517 E3.90202
G1 X125.376 Y177.368 E4.07495
G1 X121.999 Y178.05 E4.24785
G1 X118.592 Y178.564 E4.42077
G1 X115.164 Y178.907 E4.59367
G1 X111.723 Y179.078 E4.76657
G1 X108.277 Y179.078 E4.93951
G1 X104.836 Y178.907 E5.11241
G1 X101.408 Y178.564 E5.28531
G1 X98.001 Y178.05 E5.45823
G1 X94.624 Y177.368 E5.63113
G1 X91.285 Y176.517 E5.80406
G1 X87.993 Y175.502 E5.97695
G1 X84.755 Y174.323 E6.14989
G1 X81.58 Y172.985 E6.3228
G1 X78.476 Y171.49 E6.4957
G1 X75.45 Y169.842 E6.66862
G1 X72.51 Y168.046 E6.84152
G1 X69.663 Y166.105 E7.01445
G1 X66.917 Y164.025 E7.18733
G1 X64.278 Y161.81 E7.36024
G1 X61.752 Y159.466 E7.53318
G1 X59.346 Y157 E7.70608
G1 X57.066 Y154.417 E7.87899
G1 X54.918 Y151.723 E8.05191
G1 X52.907 Y148.925 E8.22484
G1 X51.038 Y146.031 E8.39773
G1 X49.315 Y143.047 E8.57066
G1 X47.743 Y139.981 E8.74358
G1 X46.326 Y136.841 E8.91647
G1 X45.067 Y133.634 E9.08937
G1 X43.97 Y130.368 E9.26228
G1 X43.037 Y127.051 E9.43521
G1 X42.27 Y123.692 E9.60812
G1 X41.672 Y120.299 E9.78103
G1 X41.243 Y116.88 E9.95396
G1 X40.986 Y113.444 E10.12688
G1 X40.9 Y110 E10.29977
G1 X40.986 Y106.556 E10.47266
G1 X41.243 Y103.12 E10.64558
G1 X41.672 Y99.701 E10.81851
G1 X42.27 Y96.308 E10.99142
G1 X43.037 Y92.949 E11.16433
G1 X43.97 Y89.632 E11.33726
G1 X45.067 Y86.366 E11.51017
G1 X46.326 Y83.159 E11.68307
G1 X47.743 Y80.019 E11.85596
G1 X49.315 Y76.953 E12.02888
G1 X51.038 Y73.969 E12.20181
G1 X52.907 Y71.075 E12.3747
G1 X54.918 Y68.277 E12.54763
G1 X57.066 Y65.583 E12.72055
G1 X59.346 Y63 E12.89346
G1 X61.752 Y60.534 E13.06636
G1 X64.278 Y58.19 E13.2393
G1 X66.917 Y55.975 E13.41221
G1 X69.663 Y53.895 E13.58509
G1 X72.51 Y51.954 E13.75802
G1 X75.45 Y50.158 E13.93092
G1 X78.476 Y48.51 E14.10384
G1 X81.58 Y47.015 E14.27674
G1 X84.755 Y45.677 E14.44965
G1 X87.993 Y44.498 E14.62259
G1 X91.285 Y43.483 E14.79548
G1 X94.624 Y42.632 E14.96841
G1 X98.001 Y41.95 E15.14131
G1 X101.408 Y41.436 E15.31423
G1 X104.836 Y41.093 E15.48713
G1 X108.277 Y40.922 E15.66003
G1 X111.723 Y40.922 E15.83297
G1 X115.088 Y41.089 E16.00205
G1 X118.593 Y41.436 E16.17881
G1 X121.999 Y41.95 E16.35168
G1 X125.376 Y42.632 E16.52458
G1 X128.715 Y43.483 E16.69751
G1 X132.007 Y44.498 E16.8704
G1 X135.245 Y45.677 E17.04334
G1 X138.42 Y47.015 E17.21625
G1 X141.524 Y48.51 E17.38915
G1 X144.55 Y50.158 E17.56207
G1 X147.49 Y51.954 E17.73497
G1 X150.337 Y53.895 E17.9079
G1 X153.083 Y55.975 E18.08078
G1 X155.722 Y58.19 E18.25369
G1 X158.248 Y60.534 E18.42663
G1 X160.654 Y63 E18.59953
G1 X162.934 Y65.583 E18.77244
G1 X165.082 Y68.277 E18.94536
G1 X167.093 Y71.075 E19.11829
G1 X168.962 Y73.969 E19.29118
G1 X170.685 Y76.953 E19.46411
G1 X172.257 Y80.019 E19.63703
G1 X173.674 Y83.159 E19.80992
G1 X174.933 Y86.366 E19.98282
G1 X176.03 Y89.632 E20.15573
G1 X176.963 Y92.949 E20.32866
G1 X177.73 Y96.308 E20.50157
G1 X178.328 Y99.701 E20.67448
G1 X178.757 Y103.12 E20.84741
G1 X179.014 Y106.556 E21.02033
G1 X179.098 Y110.081 E21.19729
G1 X179.014 Y113.444 E21.36612
G1 X178.757 Y116.88 E21.53904
G1 X178.328 Y120.299 E21.71197
G1 X177.73 Y123.692 E21.88488
G1 X176.963 Y127.051 E22.05779
G1 X176.03 Y130.368 E22.23072
G1 X174.933 Y133.634 E22.40363
G1 X173.674 Y136.841 E22.57653
G1 X172.257 Y139.981 E22.74942
G1 X170.685 Y143.047 E22.92234
G1 X168.962 Y146.031 E23.09527
G1 X167.093 Y148.925 E23.26816
G1 X165.082 Y151.723 E23.44109
G1 X162.934 Y154.417 E23.61401
G1 X160.694 Y156.955 E23.7839
G1 X160.907 Y157.235 F7800
G1 F1800
G1 X158.489 Y159.713 E23.95766
G1 X155.951 Y162.069 E24.13145
G1 X153.298 Y164.294 E24.30522
G1 X150.538 Y166.385 E24.479
G1 X147.677 Y168.336 E24.65279
G1 X144.722 Y170.141 E24.82657
G1 X141.681 Y171.797 E25.00035
G1 X138.562 Y173.299 E25.17408
G1 X135.371 Y174.645 E25.34789
G1 X132.117 Y175.829 E25.52167
G1 X128.808 Y176.849 E25.69545
G1 X125.453 Y177.704 E25.86921
G1 X122.059 Y178.39 E26.04299
G1 X118.635 Y178.906 E26.21677
G1 X115.19 Y179.251 E26.39053
G1 X111.731 Y179.423 E26.56434
G1 X108.269 Y179.423 E26.73808
G1 X104.81 Y179.251 E26.91189
G1 X101.365 Y178.906 E27.08565
G1 X97.941 Y178.39 E27.25943
G1 X94.547 Y177.704 E27.43321
G1 X91.192 Y176.849 E27.60697
G1 X87.883 Y175.829 E27.78075
G1 X84.629 Y174.645 E27.95453
G1 X81.438 Y173.299 E28.12834
G1 X78.319 Y171.797 E28.30207
G1 X75.278 Y170.141 E28.47585
G1 X72.323 Y168.336 E28.64963
G1 X69.462 Y166.385 E28.82342
G1 X66.702 Y164.294 E28.9972
G1 X64.049 Y162.069 E29.17097
G1 X61.511 Y159.713 E29.34476
G1 X59.093 Y157.235 E29.51852
G1 X56.802 Y154.638 E29.69232
G1 X54.643 Y151.931 E29.86609
G1 X52.622 Y149.12 E30.03984
G1 X50.743 Y146.211 E30.21364
G1 X49.012 Y143.212 E30.38742
G1 X47.432 Y140.131 E30.56119
G1 X46.008 Y136.975 E30.73495
G1 X44.743 Y133.752 E30.90871
G1 X43.64 Y130.469 E31.08252
G1 X42.702 Y127.136 E31.25629
G1 X41.932 Y123.76 E31.43007
G1 X41.331 Y120.35 E31.60384
G1 X40.9 Y116.914 E31.77763
G1 X40.641 Y113.462 E31.95136
G1 X40.555 Y110 E32.12516
G1 X40.641 Y106.538 E32.29896
G1 X40.9 Y103.086 E32.47269
G1 X41.331 Y99.65 E32.64648
G1 X41.932 Y96.24 E32.82025
G1 X42.702 Y92.864 E32.99403
G1 X43.64 Y89.531 E33.1678
G1 X44.743 Y86.248 E33.34161
G1 X46.008 Y83.025 E33.51537
G1 X47.432 Y79.869 E33.68913
G1 X49.012 Y76.788 E33.8629
G1 X50.743 Y73.789 E34.03668
G1 X52.622 Y70.88 E34.21048
G1 X54.643 Y68.069 E34.38423
G1 X56.802 Y65.362 E34.558
G1 X59.093 Y62.765 E34.7318
G1 X61.511 Y60.287 E34.90556
G1 X64.049 Y57.931 E35.07935
G1 X66.702 Y55.706 E35.25312
G1 X69.462 Y53.615 E35.4269
G1 X72.323 Y51.664 E35.60069
G1 X75.278 Y49.859 E35.77447
G1 X78.319 Y48.203 E35.94825
G1 X81.438 Y46.701 E36.12198
G1 X84.629 Y45.355 E36.29579
G1 X87.883 Y44.171 E36.46957
G1 X91.192 Y43.151 E36.64335
G1 X94.547 Y42.296 E36.81711
G1 X97.941 Y41.61 E36.99089
G1 X101.365 Y41.094 E37.16467
G1 X104.81 Y40.749 E37.33843
G1 X108.269 Y40.577 E37.51224
G1 X111.731 Y40.577 E37.68598
G1 X115.114 Y40.745 E37.85597
G1 X118.635 Y41.094 E38.03354
G1 X122.059 Y41.61 E38.20732
G1 X125.453 Y42.296 E38.3811
G1 X128.808 Y43.151 E38.55486
G1 X132.117 Y44.171 E38.72864
G1 X135.371 Y45.355 E38.90242
G1 X138.562 Y46.701 E39.07623
G1 X141.681 Y48.203 E39.24996
G1 X144.722 Y49.859 E39.42374
G1 X147.677 Y51.664 E39.59752
G1 X150.538 Y53.615 E39.77131
G1 X153.298 Y55.706 E39.94509
G1 X155.951 Y57.931 E40.11886
G1 X158.489 Y60.287 E40.29265
G1 X160.907 Y62.765 E40.46641
G1 X163.198 Y65.362 E40.64021
G1 X165.357 Y68.069 E40.81398
G1 X167.378 Y70.88 E40.98773
G1 X169.257 Y73.789 E41.16153
G1 X170.988 Y76.788 E41.33531
G1 X172.568 Y79.869 E41.50908
G1 X173.992 Y83.025 E41.68284
G1 X175.257 Y86.248 E41.8566
G1 X176.36 Y89.531 E42.03041
G1 X177.298 Y92.864 E42.20418
G1 X178.068 Y96.24 E42.37796
G1 X178.669 Y99.65 E42.55173
G1 X179.1 Y103.086 E42.72552
G1 X179.359 Y106.538 E42.89925
G1 X179.443 Y110.089 E43.07751
G1 X179.359 Y113.462 E43.24684
G1 X179.1 Y116.914 E43.42057
G1 X178.669 Y120.35 E43.59436
G1 X178.068 Y123.76 E43.76813
G1 X177.298 Y127.136 E43.94191
G1 X176.36 Y130.469 E44.11568
G1 X175.257 Y133.752 E44.28949
G1 X173.992 Y136.975 E44.46325
G1 X172.568 Y140.131 E44.63701
G1 X170.988 Y143.212 E44.81078
G1 X169.257 Y146.211 E44.98456
G1 X167.378 Y149.12 E45.15836
G1 X165.357 Y151.931 E45.33211
G1 X163.198 Y154.638 E45.50588
G1 X160.946 Y157.19 E45.67669
G1 X161.16 Y157.469 F7800
;TYPE:External perimeter
G1 F1800
G1 X158.73 Y159.96 E45.85133
G1 X156.179 Y162.327 E46.02598
G1 X153.513 Y164.564 E46.20064
G1 X150.739 Y166.665 E46.37528
G1 X147.864 Y168.625 E46.5499
G1 X144.895 Y170.44 E46.72454
G1 X141.839 Y172.104 E46.89917
G1 X138.704 Y173.614 E47.0738
G1 X135.497 Y174.966 E47.24846
G1 X132.227 Y176.156 E47.4231
G1 X128.902 Y177.181 E47.59772
G1 X125.53 Y178.04 E47.77235
G1 X122.119 Y178.73 E47.947
G1 X118.678 Y179.248 E48.12164
G1 X115.215 Y179.595 E48.2963
G1 X111.74 Y179.768 E48.47091
G1 X108.26 Y179.768 E48.64556
G1 X104.785 Y179.595 E48.82017
G1 X101.322 Y179.248 E48.99483
G1 X97.881 Y178.73 E49.16947
G1 X94.47 Y178.04 E49.34412
G1 X91.098 Y177.181 E49.51875
G1 X87.773 Y176.156 E49.69337
G1 X84.503 Y174.966 E49.86801
G1 X81.296 Y173.614 E50.04267
G1 X78.161 Y172.104 E50.2173
G1 X75.105 Y170.44 E50.39193
G1 X72.136 Y168.625 E50.56657
G1 X69.261 Y166.665 E50.74119
G1 X66.487 Y164.564 E50.91583
G1 X63.821 Y162.327 E51.09049
G1 X61.27 Y159.96 E51.26514
G1 X58.84 Y157.469 E51.43978
G1 X56.538 Y154.86 E51.6144
G1 X54.368 Y152.139 E51.78906
G1 X52.337 Y149.314 E51.96367
G1 X50.449 Y146.391 E52.1383
G1 X48.709 Y143.377 E52.31296
G1 X47.121 Y140.281 E52.48758
G1 X45.69 Y137.109 E52.66222
G1 X44.419 Y133.87 E52.83684
G1 X43.311 Y130.571 E53.01149
G1 X42.368 Y127.221 E53.18615
G1 X41.594 Y123.829 E53.36076
G1 X40.99 Y120.402 E53.5354
G1 X40.557 Y116.949 E53.71005
G1 X40.297 Y113.479 E53.88468
G1 X40.21 Y110 E54.05933
G1 X40.297 Y106.521 E54.23398
G1 X40.557 Y103.051 E54.40861
G1 X40.99 Y99.598 E54.58326
G1 X41.594 Y96.171 E54.7579
G1 X42.368 Y92.779 E54.93251
G1 X43.311 Y89.429 E55.10717
G1 X44.419 Y86.13 E55.28182
G1 X45.69 Y82.891 E55.45644
G1 X47.121 Y79.719 E55.63108
G1 X48.709 Y76.623 E55.8057
G1 X50.449 Y73.609 E55.98036
G1 X52.337 Y70.686 E56.15499
G1 X54.368 Y67.861 E56.3296
G1 X56.538 Y65.14 E56.50426
G1 X58.84 Y62.531 E56.67888
G1 X61.27 Y60.04 E56.85352
G1 X63.821 Y57.673 E57.02817
G1 X66.487 Y55.436 E57.20283
G1 X69.261 Y53.335 E57.37747
G1 X72.136 Y51.375 E57.55209
G1 X75.105 Y49.56 E57.72673
G1 X78.161 Y47.896 E57.90136
G1 X81.296 Y46.386 E58.07599
G1 X84.503 Y45.034 E58.25065
G1 X87.773 Y43.844 E58.42529
G1 X91.098 Y42.819 E58.59991
G1 X94.47 Y41.96 E58.77454
G1 X97.881 Y41.27 E58.94919
G1 X101.322 Y40.752 E59.12383
G1 X104.785 Y40.405 E59.29849
G1 X108.26 Y40.232 E59.4731
G1 X111.74 Y40.232 E59.64775
G1 X115.139 Y40.401 E59.81854
G1 X118.678 Y40.752 E59.99702
G1 X122.119 Y41.27 E60.17166
G1 X125.53 Y41.96 E60.34631
G1 X128.902 Y42.819 E60.52094
G1 X132.227 Y43.844 E60.69556
G1 X135.497 Y45.034 E60.8702
G1 X138.704 Y46.386 E61.04486
G1 X141.839 Y47.896 E61.21949
G1 X144.895 Y49.56 E61.39412
G1 X147.864 Y51.375 E61.56876
G1 X150.739 Y53.335 E61.74338
G1 X153.513 Y55.436 E61.91802
G1 X156.179 Y57.673 E62.09268
G1 X158.73 Y60.04 E62.26733
G1 X161.16 Y62.531 E62.44197
G1 X163.462 Y65.14 E62.61659
G1 X165.632 Y67.861 E62.79125
G1 X167.663 Y70.686 E62.96586
G1 X169.551 Y73.609 E63.14049
G1 X171.291 Y76.623 E63.31515
G1 X172.879 Y79.719 E63.48977
G1 X174.31 Y82.891 E63.66441
G1 X175.581 Y86.13 E63.83903
G1 X176.689 Y89.429 E64.01368
G1 X177.632 Y92.779 E64.18834
G1 X178.406 Y96.171 E64.36295
G1 X179.01 Y99.598 E64.53759
G1 X179.443 Y103.051 E64.71224
G1 X179.703 Y106.521 E64.88687
G1 X179.787 Y110.098 E65.06643
G1 X179.703 Y113.479 E65.23616
G1 X179.443 Y116.949 E65.41079
G1 X179.01 Y120.402 E65.58544
G1 X178.406 Y123.829 E65.76008
G1 X177.632 Y127.221 E65.93469
G1 X176.689 Y130.571 E66.10935
G1 X175.581 Y133.87 E66.284
G1 X174.31 Y137.109 E66.45862
G1 X172.879 Y140.281 E66.63326
G1 X171.291 Y143.377 E66.80788
G1 X169.551 Y146.391 E66.98254
G1 X167.663 Y149.314 E67.15717
G1 X165.632 Y152.139 E67.33178
G1 X163.462 Y154.86 E67.50644
G1 X161.199 Y157.424 E67.67807
G1 X160.922 Y157.712 F7800
G1 E65.67807 F2400
G92 E0
G1 X113.436 Y101.151 F7800
G1 E2 F2400
